X:1
T:Title
%%score ( 1 2 ) { 3 | 4 }
L:1/8
Q:1/4=100
M:3/4
K:Bb
V:1 treble nm="Grand Piano, Soprano"
V:2 treble 
V:3 bass nm="Choir Pad, Bass"
V:4 bass 
V:1
 [Fd]3 [Fd] [Ec][DB] | [EG]2 [DF]2 [DB]>[DB] | [Fc]4 F2 | [Fd]6 | [Fd]3 [Fd] [Ec][DB] | %5
w: By~John~Harrison~Tenney * * *|||||
 [EG]2 [DF]2 [DB]>[Ec] | [Fd]4 [Ec]2 | [DB]4 [Fd]>[Fd] | [Ec]4 [DB]>[EG] | [DF]4 [Fd]>[Fd] | %10
w: |||||
 c4 z2 | [FA]6 | [DB]3 [Fd] [Ec][DB] | [EG]2 [DF]2 [DB]>[Ec] | [Fd]4 [Ec]2 | [DB]6- | %16
w: ||||||
 [DB]2 z2 z2 |] %17
w: |
V:2
 x6 | x6 | x6 | x6 | x6 | x6 | x6 | x6 | x6 | x6 | F2 =E2 [EG]2 | x6 | x6 | x6 | x6 | x6 | x6 |] %17
V:3
 B,3 B, F,F, | B,2 B,2 z2 | A,A, A,2 C2 | B,6 | B,3 B, F,F, | B,2 B,2 z2 | B,B, B,2 A,2 | B,4 z2 | %8
 A,A, A,2 z2 | B,B, B,2 z2 | A,A, A,2 C2 | C6 | B,3 B, F,F, | B,2 B,2 z2 | B,B, B,2 A,2 | B,6- | %16
 B,2 z2 z2 |] %17
V:4
 B,,3 B,, B,,B,, | B,,2 B,,2 z2 | F,F, F,2 A,,2 | B,,6 | B,,3 B,, B,,B,, | B,,2 B,,2 z2 | %6
 B,,D, F,2 F,2 | B,,4 z2 | F,F, F,2 z2 | B,,B,, B,,2 z2 | C,C, C,2 C,2 | F,6 | B,,3 B,, B,,B,, | %13
 B,,2 B,,2 z2 | B,,D, F,2 F,2 | B,,6- | B,,2 z2 z2 |] %17

